X:1
T:[ID 8-11b]
T:[ID 8-11b]
T:Bezeichnung standardisiert: Menuet de Roise [2]; Menuetto de Rosise In dieser Quelle auch als: Menuet 3. Violino Prima Roise In dieser Quelle auch als: Menuet de Roise In dieser Quelle auch als: Menuet Roise
T:Urheber unbekannt Datum in der hier transkribierten schriftlichen Quelle: 1792
C:Urheber unbekannt
C:Datum in der hier transkribierten schriftlichen Quelle: 1792
L:1/8
M:3/4
K:D
V:1 treble 
V:1
 a2 f2 Tg2 | a3 b a2 | g2 e2 Tf2 | g3 a g2 | f/g/a/b/ a2 z2 | d'3/2c'/4b/4 a4 | a3/2g/4a/4 bagf | %7
 e6 ::"^O)" e2 c2 d2 | e3 f e2 |"^O)" e2 c2 d2 | e3 f e2 | g3/2(f/4g/4) e2 z2 | %13
 g3/2(f/4g/4) e2 z2 | f/g/a/b/ aa b/a/g/f/ | e6 | a2 f2 Tg2 | a3 b a2 | g2 e2 f2 | g3 a g2 | %20
 f/g/a/b/ a2 z2 | d'3/2c'/4b/4 a2 z | a>a agfe | e4 d2 :| %24

